dist/images/icons/basket.svg

<svg width="20" height="25" viewBox="0 0 20 25" fill="none" xmlns="http://www.w3.org/2000/svg">
<path d="M14.4437 6.70625L14.2937 4.68125C14.125 2.45 12.25 0.6875 9.99998 0.6875C7.74998 0.6875 5.85623 2.45 5.70623 4.68125L5.55623 6.70625H3.39998C2.51873 6.70625 1.78748 7.4 1.71248 8.28125L0.699981 22.5125C0.662481 22.9813 0.831231 23.45 1.14998 23.7875C1.46873 24.125 1.91873 24.3313 2.38748 24.3313H17.6312C18.1 24.3313 18.55 24.1438 18.8687 23.7875C19.1875 23.45 19.3562 22.9813 19.3187 22.5125L18.3062 8.4125C18.2312 7.45625 17.4437 6.725 16.4875 6.725H14.4437V6.70625ZM6.83123 4.75625C6.94373 3.10625 8.33123 1.8125 9.99998 1.8125C11.6687 1.8125 13.0562 3.10625 13.1687 4.75625L13.3 6.70625H6.68123L6.83123 4.75625ZM17.1812 8.4875L18.1937 22.5875C18.2125 22.7375 18.1562 22.8875 18.0437 23.0188C17.9312 23.1313 17.7812 23.2063 17.6312 23.2063H2.38748C2.23748 23.2063 2.08748 23.15 1.97498 23.0188C1.86248 22.8875 1.80623 22.7563 1.82498 22.5875L2.83748 8.35625C2.85623 8.05625 3.09998 7.83125 3.39998 7.83125H5.48123L5.36873 9.33125C5.34998 9.65 5.57498 9.9125 5.89373 9.93125H5.93123C6.23123 9.93125 6.47498 9.70625 6.49373 9.40625L6.60623 7.83125H13.3937L13.5062 9.40625C13.525 9.725 13.7875 9.95 14.1062 9.93125C14.425 9.9125 14.65 9.65 14.6312 9.33125L14.5187 7.83125H16.4875C16.8437 7.83125 17.1437 8.1125 17.1812 8.4875Z" fill="#2B2A29"/>
</svg>

<svg width="20" height="25" fill="none" xmlns="http://www.w3.org/2000/svg"><path d="M14.444 6.706l-.15-2.025C14.125 2.45 12.25.687 10 .687c-2.25 0-4.144 1.763-4.294 3.994l-.15 2.025H3.4c-.881 0-1.613.694-1.688 1.575L.7 22.512c-.038.47.131.938.45 1.276a1.72 1.72 0 001.237.543h15.244a1.65 1.65 0 001.238-.543 1.68 1.68 0 00.45-1.276l-1.013-14.1a1.822 1.822 0 00-1.819-1.687h-2.043v-.019zM6.83 4.756A3.175 3.175 0 0110 1.812a3.175 3.175 0 013.169 2.944l.131 1.95H6.681l.15-1.95zm10.35 3.732l1.013 14.1c.018.15-.038.3-.15.43a.602.602 0 01-.413.188H2.387a.53.53 0 01-.412-.187c-.113-.131-.169-.263-.15-.431L2.837 8.355A.557.557 0 013.4 7.83h2.081l-.112 1.5a.554.554 0 00.525.6h.037c.3 0 .544-.225.563-.525l.112-1.575h6.788l.112 1.575a.554.554 0 00.6.525.554.554 0 00.525-.6l-.112-1.5h1.969a.71.71 0 01.693.657z" fill="#2B2A29"/></svg>
